static/assets/img/decorations/deco-blob-8.svg

<svg fill="none" height="159" viewBox="0 0 122 159" width="122" xmlns="http://www.w3.org/2000/svg"><path d="m43.3108 158.858c-2.689-.375-6.668-.772-10.582-1.517-4.717-.896-9.314-2.233-13.662-4.382-5.758-2.847-10.75601-6.656-14.66001-11.73-3.332-4.333-4.786997-9.346-4.237997-14.864.102-1.031.17199-2.077.11699-3.109-.3300007-6.273.475008-12.438 1.609007-18.586.812-4.398 1.605-8.808 2.178-13.242.377-2.921.38701-5.894.48401-8.846.109-3.353.05899-6.71.21699-10.06.131-2.791.52-5.57.691-8.36.301-4.939.54299-9.882.77099-14.825.133-2.872.06201-5.758.30901-8.618.529-6.175 2.59801-11.823 6.12501-16.938 1.541-2.233 2.953-4.554 4.49-6.789 1.705-2.482 3.908-4.481 6.605-5.795 6.252-3.04198 12.344-6.42497 18.896-8.82997 1.443-.53 2.84-.90001 4.412-.88501 1.662.018 3.359-.19899 4.986-.558991 3.152-.697001 6.039.147981 8.865 1.311981 7.369 3.035 13.662 7.593 18.902 13.60399 1.154 1.324 2.389 2.579 3.568 3.882 3.189 3.518 5.631 7.515 7.855 11.702 5.572 10.487 8.355 21.924 11.5552 33.221 2.311 8.162 4.758 16.256 8.529 23.903 3.447 6.988 5.914 14.311 7.197 22.035.43 2.584 1.533 5.049 2.131 7.613.541 2.323.896 4.699 1.164 7.07.113 1-.156 2.06-.346 3.074-.645 3.467-2.633 5.918-5.738 7.535-5.455 2.842-10.764 5.972-16.5452 8.166-1.789.679-3.516 1.538-5.23 2.396-4.76 2.38-9.844 3.727-14.992 4.946-3.496.828-6.902 2.022-10.385 2.923-4.639 1.2-9.279 2.439-13.979 3.346-3.278.633-6.661.736-11.299 1.207z" fill="#000"/></svg>

<svg width="122" height="159" viewBox="0 0 122 159" fill="none" xmlns="http://www.w3.org/2000/svg">
<path d="M43.3108 158.858C40.6218 158.483 36.6428 158.086 32.7288 157.341C28.0118 156.445 23.4148 155.108 19.0668 152.959C13.3088 150.112 8.31079 146.303 4.40679 141.229C1.07479 136.896 -0.380207 131.883 0.168793 126.365C0.270793 125.334 0.340783 124.288 0.285783 123.256C-0.0442177 116.983 0.760791 110.818 1.89479 104.67C2.70679 100.272 3.49979 95.862 4.07279 91.428C4.44979 88.507 4.4598 85.534 4.5568 82.582C4.6658 79.229 4.61579 75.872 4.77379 72.522C4.90479 69.731 5.29379 66.952 5.46479 64.162C5.76579 59.223 6.00778 54.28 6.23578 49.337C6.36878 46.465 6.29779 43.579 6.54479 40.719C7.07379 34.544 9.1428 28.896 12.6698 23.781C14.2108 21.548 15.6228 19.227 17.1598 16.992C18.8648 14.51 21.0678 12.511 23.7648 11.197C30.0168 8.15502 36.1088 4.77203 42.6608 2.36703C44.1038 1.83703 45.5008 1.46702 47.0728 1.48202C48.7348 1.50002 50.4318 1.28303 52.0588 0.923029C55.2108 0.226028 58.0978 1.07101 60.9238 2.23501C68.2928 5.27001 74.5858 9.82801 79.8258 15.839C80.9798 17.163 82.2148 18.418 83.3938 19.721C86.5828 23.239 89.0248 27.236 91.2488 31.423C96.8208 41.91 99.6038 53.347 102.804 64.644C105.115 72.806 107.562 80.9 111.333 88.547C114.78 95.535 117.247 102.858 118.53 110.582C118.96 113.166 120.063 115.631 120.661 118.195C121.202 120.518 121.557 122.894 121.825 125.265C121.938 126.265 121.669 127.325 121.479 128.339C120.834 131.806 118.846 134.257 115.741 135.874C110.286 138.716 104.977 141.846 99.1958 144.04C97.4068 144.719 95.6798 145.578 93.9658 146.436C89.2058 148.816 84.1218 150.163 78.9738 151.382C75.4778 152.21 72.0718 153.404 68.5888 154.305C63.9498 155.505 59.3098 156.744 54.6098 157.651C51.3318 158.284 47.9488 158.387 43.3108 158.858Z" fill="black"/>
</svg>
